cc-by-sa/knowledge/modules/using_type/lessons/from_type_to_logotype/images/22_scaling.svg

<svg xmlns="http://www.w3.org/2000/svg" width="1920" height="1080" fill="none"><g clip-path="url(#a)"><path fill="#1A73E8" d="M918.141 482v-52H243v52h675.141ZM243 409.771V218h51.93v142.456h77.376v49.315H243ZM731.671 218v191.771h-43.185l-69.15-100.647h-1.285v100.647h-51.93V218h44.216l67.865 100.394h1.544V218h51.93-.005ZM795.681 409.771h-51.93L807.043 218h51.924l-63.286 191.771Z"/><path fill="#1A73E8" d="M889.252 409.771h51.93L877.89 218h-51.93l63.292 191.771Z"/><path fill="#1A73E8" d="M913.07 481.99H965l-63.292-191.771h-51.93L913.07 481.99ZM858.539 270v-52h-32.14v52h32.14ZM495.792 218.006v111.321c0 17.026-13.831 30.875-30.835 30.875-17.003 0-30.834-13.849-30.834-30.875V218.006H382.31v111.321c0 45.705 37.004 82.759 82.647 82.759 45.644 0 82.648-37.054 82.648-82.759V218.006h-51.813ZM842.8 395.392c14.401 0 26.076-11.69 26.076-26.111 0-14.421-11.675-26.111-26.076-26.111-14.402 0-26.076 11.69-26.076 26.111 0 14.421 11.674 26.111 26.076 26.111Z"/><path fill="#F3F7FE" d="M871.281 381.988c7.04 0 12.748-5.715 12.748-12.765 0-7.049-5.708-12.764-12.748-12.764-7.04 0-12.747 5.715-12.747 12.764 0 7.05 5.707 12.765 12.747 12.765Z"/></g><g clip-path="url(#b)"><path fill="#1A73E8" d="M643.222 661v-30.727H243V661h400.222ZM243 618.319V505h30.784v84.179h45.869v29.14H243ZM532.682 505v113.319h-25.6l-40.992-59.473h-.761v59.473h-30.784V505h26.211l40.23 59.324h.915V505h30.784-.003ZM570.628 618.319h-30.784L577.363 505h30.781l-37.516 113.319Z"/><path fill="#1A73E8" d="M626.096 618.319h30.784L619.361 505h-30.784l37.519 113.319Z"/><path fill="#1A73E8" d="M640.216 660.993H671l-37.519-113.319h-30.784l37.519 113.319ZM607.891 535.727V505h-19.053v30.727h19.053ZM392.854 505.004v65.78c0 10.061-8.199 18.245-18.279 18.245-10.079 0-18.278-8.184-18.278-18.245v-65.78h-30.715v65.78c0 27.008 21.936 48.903 48.993 48.903 27.058 0 48.994-21.895 48.994-48.903v-65.78h-30.715ZM598.559 609.823c8.537 0 15.458-6.908 15.458-15.429s-6.921-15.429-15.458-15.429c-8.537 0-15.457 6.908-15.457 15.429s6.92 15.429 15.457 15.429Z"/><path fill="#F3F7FE" d="M615.443 601.901c4.174 0 7.557-3.376 7.557-7.542s-3.383-7.543-7.557-7.543c-4.173 0-7.556 3.377-7.556 7.543s3.383 7.542 7.556 7.542Z"/></g><g clip-path="url(#c)"><path fill="#1A73E8" d="M480.515 776v-18.121H243V776h237.515ZM243 750.829V684h18.269v49.644h27.221v17.185H243ZM414.914 684v66.829h-15.192l-24.327-35.074h-.452v35.074h-18.269V684h15.555l23.875 34.986h.543V684h18.269-.002ZM437.433 750.829h-18.269L441.43 684h18.267l-22.264 66.829Z"/><path fill="#1A73E8" d="M470.352 750.829h18.269L466.355 684h-18.269l22.266 66.829Z"/><path fill="#1A73E8" d="M478.731 775.995H497l-22.266-66.829h-18.269l22.266 66.829ZM459.547 702.121V684H448.24v18.121h11.307ZM331.932 684.002v38.794c0 5.933-4.866 10.759-10.848 10.759-5.981 0-10.847-4.826-10.847-10.759v-38.794h-18.228v38.794c0 15.927 13.018 28.84 29.075 28.84 16.058 0 29.076-12.913 29.076-28.84v-38.794h-18.228ZM454.009 745.818c5.067 0 9.174-4.074 9.174-9.1 0-5.025-4.107-9.099-9.174-9.099-5.066 0-9.173 4.074-9.173 9.099 0 5.026 4.107 9.1 9.173 9.1Z"/><path fill="#F3F7FE" d="M464.029 741.146c2.477 0 4.485-1.991 4.485-4.448 0-2.456-2.008-4.448-4.485-4.448-2.476 0-4.484 1.992-4.484 4.448 0 2.457 2.008 4.448 4.484 4.448Z"/></g><g clip-path="url(#d)"><path fill="#1A73E8" d="M403.837 860.999v-12.212H243v12.212h160.837ZM243 844.037V799h12.371v33.456h18.433v11.581H243ZM359.415 799v45.037h-10.288L332.654 820.4h-.306v23.637h-12.371V799h10.533l16.167 23.577h.368V799h12.371-.001ZM374.664 844.037h-12.371L377.371 799h12.37l-15.077 45.037Z"/><path fill="#1A73E8" d="M396.955 844.037h12.371L394.248 799h-12.371l15.078 45.037Z"/><path fill="#1A73E8" d="M402.629 860.998H415l-15.078-45.037h-12.371l15.078 45.037ZM389.638 811.212V799h-7.657v12.212h7.657ZM303.222 799.002v26.143c0 3.999-3.295 7.252-7.346 7.252-4.05 0-7.345-3.253-7.345-7.252v-26.143h-12.343v26.143c0 10.734 8.815 19.436 19.688 19.436 10.874 0 19.689-8.702 19.689-19.436v-26.143h-12.343ZM385.889 840.661c3.431 0 6.212-2.746 6.212-6.132 0-3.387-2.781-6.133-6.212-6.133-3.431 0-6.212 2.746-6.212 6.133 0 3.386 2.781 6.132 6.212 6.132Z"/><path fill="#F3F7FE" d="M392.673 837.513c1.678 0 3.037-1.342 3.037-2.998 0-1.655-1.359-2.997-3.037-2.997-1.677 0-3.036 1.342-3.036 2.997 0 1.656 1.359 2.998 3.036 2.998Z"/></g><g fill="#1A73E8" clip-path="url(#e)"><path d="M1624.91 481.989 1607.7 430h-159.46L1431 482h198.99v-.011h-5.08ZM1537.96 219.313l-.44-1.313h-18.98l-63.49 191.771h52.1L1553.42 270h-15.46v-50.687ZM1653.09 409.771h.02L1589.61 218h-18.97l-.44 1.313V270h-15.46l6.69 20.218h52.08l39.58 119.553Z"/><path d="M1537.96 218h-.44l.44 1.313V218ZM1570.64 218h-.44v1.313l.44-1.313ZM1561.43 290.219h-.01l21.93 66.251h.02l-21.94-66.251ZM1629.99 481.99H1677l-23.91-72.218h-52.08l-10.11-30.532s0 .006-.01.011l16.81 50.75h22.29v51.989Z"/><path d="M1629.99 481.989V430h-22.29l17.21 51.989h5.08ZM1595.77 369.223c0 4.061-1.9 7.682-4.87 10.017l10.11 30.532h52.08l-39.58-119.559h-52.08l21.94 66.251c6.88.202 12.4 5.835 12.4 12.754v.005ZM1553.42 270h1.32l-.66-1.99-.66 1.99ZM1537.96 219.312v50.687h15.46l.66-1.991-16.12-48.696ZM1570.2 219.312l-16.12 48.696.66 1.991h15.46v-50.687Z"/><path d="m1554.08 268.009 16.12-48.696V218h-32.24v1.313l16.12 48.696ZM1570.2 369.224c0-5.204 3.12-9.672 7.59-11.663-4.3-8.534-13.15-14.395-23.38-14.395-14.44 0-26.15 11.69-26.15 26.111 0 14.421 11.71 26.111 26.15 26.111 10.27 0 19.15-5.903 23.43-14.485-4.5-1.98-7.64-6.464-7.64-11.684v.005Z"/></g><g fill="#1A73E8" clip-path="url(#f)"><path d="m1560.29 660.994-10.14-30.721h-93.99L1446 661h117.29v-.006h-3ZM1509.04 505.776l-.25-.776h-11.19l-37.42 113.319h30.7l27.28-82.592h-9.12v-29.951ZM1576.91 618.319h.01L1539.49 505h-11.18l-.26.776v29.951h-9.12l3.95 11.947h30.7l23.33 70.645Z"/><path d="M1509.04 505h-.25l.25.776V505ZM1528.31 505h-.26v.776l.26-.776ZM1522.88 547.674h-.01l12.93 39.148h.01l-12.93-39.148ZM1563.29 660.993H1591l-14.09-42.674h-30.7l-5.96-18.042v.007l9.9 29.988h13.14v30.721Z"/><path d="M1563.29 660.994v-30.721h-13.14l10.14 30.721h3ZM1543.12 594.36a7.52 7.52 0 0 1-2.87 5.919l5.96 18.041h30.7l-23.33-70.648h-30.7l12.93 39.148a7.536 7.536 0 0 1 7.31 7.537v.003ZM1518.16 535.727h.77l-.38-1.176-.39 1.176ZM1509.04 505.775v29.952h9.12l.39-1.177-9.51-28.775ZM1528.05 505.775l-9.5 28.775.38 1.177h9.12v-29.952Z"/><path d="m1518.55 534.551 9.5-28.775V505h-19.01v.776l9.51 28.775ZM1528.05 594.359a7.549 7.549 0 0 1 4.47-6.892c-2.53-5.043-7.75-8.506-13.78-8.506-8.51 0-15.41 6.907-15.41 15.429s6.9 15.429 15.41 15.429c6.05 0 11.29-3.488 13.81-8.559a7.544 7.544 0 0 1-4.5-6.904v.003Z"/></g><g fill="#1A73E8" clip-path="url(#g)"><path d="m1514.79 775.996-6.02-18.117h-55.74L1447 776h69.57v-.004h-1.78ZM1484.39 684.458l-.15-.458h-6.64l-22.19 66.829h18.21l16.18-48.708h-5.41v-17.663ZM1524.64 750.829h.01L1502.45 684h-6.63l-.16.458v17.663h-5.4l2.34 7.046h18.2l13.84 41.662Z"/><path d="M1484.39 684h-.15l.15.458V684ZM1495.82 684h-.16v.458l.16-.458ZM1492.6 709.166h-.01l7.67 23.088h.01l-7.67-23.088ZM1516.57 775.996H1533l-8.36-25.167h-18.2l-3.54-10.64v.004l5.87 17.686h7.8v18.117Z"/><path d="M1516.57 775.996v-18.117h-7.8l6.02 18.117h1.78ZM1504.6 736.698c0 1.415-.66 2.677-1.7 3.491l3.54 10.639h18.2l-13.84-41.664h-18.2l7.67 23.088c2.4.07 4.33 2.033 4.33 4.444v.002ZM1489.8 702.121h.46l-.23-.693-.23.693Z"/><path d="M1484.39 684.457v17.664h5.41l.23-.694-5.64-16.97Z"/><path d="m1495.66 684.457-5.63 16.97.23.694h5.4v-17.664Z"/><path d="m1490.03 701.427 5.63-16.969V684h-11.27v.458l5.64 16.969ZM1495.66 736.7a4.44 4.44 0 0 1 2.66-4.064 9.16 9.16 0 0 0-8.18-5.017c-5.05 0-9.14 4.074-9.14 9.099 0 5.026 4.09 9.1 9.14 9.1a9.14 9.14 0 0 0 8.19-5.048 4.452 4.452 0 0 1-2.67-4.072v.002Z"/></g><g fill="#1A73E8" clip-path="url(#h)"><path d="m1490.93 860.997-3.99-12.21H1450l-4 12.212h46.11v-.002h-1.18ZM1470.78 799.308l-.1-.308h-4.4l-14.71 45.037h12.07l10.73-32.825h-3.59v-11.904ZM1497.46 844.037 1482.75 799h-4.39l-.11.308v11.904h-3.58l1.55 4.748h12.07l9.17 28.077Z"/><path d="M1470.78 799h-.1l.1.308V799ZM1478.35 799h-.1v.308l.1-.308ZM1476.22 815.961l5.08 15.559-5.08-15.559ZM1492.11 860.998H1503l-5.54-16.961h-12.07l-2.34-7.17v.003l3.89 11.918h5.17v12.21Z"/><path d="M1492.11 860.997v-12.21h-5.17l3.99 12.21h1.18ZM1484.18 834.514c0 .954-.44 1.805-1.13 2.353l2.34 7.17h12.07l-9.17-28.078h-12.07l5.08 15.559c1.6.047 2.88 1.37 2.88 2.995v.001ZM1474.37 811.212h.3l-.15-.468-.15.468Z"/><path d="M1470.78 799.309v11.903h3.59l.15-.467-3.74-11.436ZM1478.25 799.309l-3.73 11.436.15.467h3.58v-11.903ZM1474.52 810.745l3.73-11.437V799h-7.47v.308l3.74 11.437ZM1478.25 834.514c0-1.222.73-2.271 1.76-2.739-.99-2.004-3.04-3.38-5.41-3.38-3.35 0-6.06 2.745-6.06 6.132 0 3.386 2.71 6.132 6.06 6.132 2.37 0 4.43-1.387 5.42-3.402a3.003 3.003 0 0 1-1.77-2.744v.001Z"/></g><defs><clipPath id="a"><path fill="#fff" d="M243 218h722v264H243z"/></clipPath><clipPath id="b"><path fill="#fff" d="M243 505h428v156H243z"/></clipPath><clipPath id="c"><path fill="#fff" d="M243 684h254v92H243z"/></clipPath><clipPath id="d"><path fill="#fff" d="M243 799h172v62H243z"/></clipPath><clipPath id="e"><path fill="#fff" d="M1431 218h246v264h-246z"/></clipPath><clipPath id="f"><path fill="#fff" d="M1446 505h145v156h-145z"/></clipPath><clipPath id="g"><path fill="#fff" d="M1447 684h86v92h-86z"/></clipPath><clipPath id="h"><path fill="#fff" d="M1446 799h57v62h-57z"/></clipPath></defs></svg>

<svg width="1920" height="1080" viewBox="0 0 1920 1080" fill="none" xmlns="http://www.w3.org/2000/svg">
<g clip-path="url(#clip0_3303_15908)">
<path d="M918.141 482V430L243 430V482L918.141 482Z" fill="#1A73E8"/>
<path d="M243 409.771V218H294.93V360.456H372.306V409.771H243Z" fill="#1A73E8"/>
<path d="M731.671 218V409.771H688.486L619.336 309.124H618.051V409.771H566.121V218H610.337L678.202 318.394H679.746V218H731.676H731.671Z" fill="#1A73E8"/>
<path d="M795.681 409.771H743.751L807.043 218H858.967L795.681 409.771Z" fill="#1A73E8"/>
<path d="M889.252 409.771H941.182L877.89 218H825.96L889.252 409.771Z" fill="#1A73E8"/>
<path d="M913.07 481.99H965L901.708 290.219H849.778L913.07 481.99Z" fill="#1A73E8"/>
<path d="M858.539 270V218H826.399V270H858.539Z" fill="#1A73E8"/>
<path d="M495.792 218.006V329.327C495.792 346.353 481.961 360.202 464.957 360.202C447.954 360.202 434.123 346.353 434.123 329.327V218.006H382.31V329.327C382.31 375.032 419.314 412.086 464.957 412.086C510.601 412.086 547.605 375.032 547.605 329.327V218.006H495.792Z" fill="#1A73E8"/>
<path d="M842.8 395.392C857.201 395.392 868.876 383.702 868.876 369.281C868.876 354.86 857.201 343.17 842.8 343.17C828.398 343.17 816.724 354.86 816.724 369.281C816.724 383.702 828.398 395.392 842.8 395.392Z" fill="#1A73E8"/>
<path d="M871.281 381.988C878.321 381.988 884.029 376.273 884.029 369.223C884.029 362.174 878.321 356.459 871.281 356.459C864.241 356.459 858.534 362.174 858.534 369.223C858.534 376.273 864.241 381.988 871.281 381.988Z" fill="#F3F7FE"/>
</g>
<g clip-path="url(#clip1_3303_15908)">
<path d="M643.222 661V630.273H243V661H643.222Z" fill="#1A73E8"/>
<path d="M243 618.319V505H273.784V589.179H319.653V618.319H243Z" fill="#1A73E8"/>
<path d="M532.682 505V618.319H507.082L466.09 558.846H465.329V618.319H434.545V505H460.756L500.986 564.324H501.901V505H532.685H532.682Z" fill="#1A73E8"/>
<path d="M570.628 618.319H539.844L577.363 505H608.144L570.628 618.319Z" fill="#1A73E8"/>
<path d="M626.096 618.319H656.88L619.361 505H588.577L626.096 618.319Z" fill="#1A73E8"/>
<path d="M640.216 660.993H671L633.481 547.674H602.697L640.216 660.993Z" fill="#1A73E8"/>
<path d="M607.891 535.727V505H588.838V535.727H607.891Z" fill="#1A73E8"/>
<path d="M392.854 505.004V570.784C392.854 580.845 384.655 589.029 374.575 589.029C364.496 589.029 356.297 580.845 356.297 570.784V505.004H325.582V570.784C325.582 597.792 347.518 619.687 374.575 619.687C401.633 619.687 423.569 597.792 423.569 570.784V505.004H392.854Z" fill="#1A73E8"/>
<path d="M598.559 609.823C607.096 609.823 614.017 602.915 614.017 594.394C614.017 585.873 607.096 578.965 598.559 578.965C590.022 578.965 583.102 585.873 583.102 594.394C583.102 602.915 590.022 609.823 598.559 609.823Z" fill="#1A73E8"/>
<path d="M615.443 601.901C619.617 601.901 623 598.525 623 594.359C623 590.193 619.617 586.816 615.443 586.816C611.27 586.816 607.887 590.193 607.887 594.359C607.887 598.525 611.27 601.901 615.443 601.901Z" fill="#F3F7FE"/>
</g>
<g clip-path="url(#clip2_3303_15908)">
<path d="M480.515 776V757.879H243V776H480.515Z" fill="#1A73E8"/>
<path d="M243 750.829V684H261.269V733.644H288.49V750.829H243Z" fill="#1A73E8"/>
<path d="M414.914 684V750.829H399.722L375.395 715.755H374.943V750.829H356.674V684H372.229L396.104 718.986H396.647V684H414.916H414.914Z" fill="#1A73E8"/>
<path d="M437.433 750.829H419.164L441.43 684H459.697L437.433 750.829Z" fill="#1A73E8"/>
<path d="M470.352 750.829H488.621L466.355 684H448.086L470.352 750.829Z" fill="#1A73E8"/>
<path d="M478.731 775.995H497L474.734 709.166H456.465L478.731 775.995Z" fill="#1A73E8"/>
<path d="M459.547 702.121V684H448.24V702.121H459.547Z" fill="#1A73E8"/>
<path d="M331.932 684.002V722.796C331.932 728.729 327.066 733.555 321.084 733.555C315.103 733.555 310.237 728.729 310.237 722.796V684.002H292.009V722.796C292.009 738.723 305.027 751.636 321.084 751.636C337.142 751.636 350.16 738.723 350.16 722.796V684.002H331.932Z" fill="#1A73E8"/>
<path d="M454.009 745.818C459.076 745.818 463.183 741.744 463.183 736.718C463.183 731.693 459.076 727.619 454.009 727.619C448.943 727.619 444.836 731.693 444.836 736.718C444.836 741.744 448.943 745.818 454.009 745.818Z" fill="#1A73E8"/>
<path d="M464.029 741.146C466.506 741.146 468.514 739.155 468.514 736.698C468.514 734.242 466.506 732.25 464.029 732.25C461.553 732.25 459.545 734.242 459.545 736.698C459.545 739.155 461.553 741.146 464.029 741.146Z" fill="#F3F7FE"/>
</g>
<g clip-path="url(#clip3_3303_15908)">
<path d="M403.837 860.999V848.787H243V860.999H403.837Z" fill="#1A73E8"/>
<path d="M243 844.037V799H255.371V832.456H273.804V844.037H243Z" fill="#1A73E8"/>
<path d="M359.415 799V844.037H349.127L332.654 820.4H332.348V844.037H319.977V799H330.51L346.677 822.577H347.045V799H359.416H359.415Z" fill="#1A73E8"/>
<path d="M374.664 844.037H362.293L377.371 799H389.741L374.664 844.037Z" fill="#1A73E8"/>
<path d="M396.955 844.037H409.326L394.248 799H381.877L396.955 844.037Z" fill="#1A73E8"/>
<path d="M402.629 860.998H415L399.922 815.961H387.551L402.629 860.998Z" fill="#1A73E8"/>
<path d="M389.638 811.212V799H381.981V811.212H389.638Z" fill="#1A73E8"/>
<path d="M303.222 799.002V825.145C303.222 829.144 299.927 832.397 295.876 832.397C291.826 832.397 288.531 829.144 288.531 825.145V799.002H276.188V825.145C276.188 835.879 285.003 844.581 295.876 844.581C306.75 844.581 315.565 835.879 315.565 825.145V799.002H303.222Z" fill="#1A73E8"/>
<path d="M385.889 840.661C389.32 840.661 392.101 837.915 392.101 834.529C392.101 831.142 389.32 828.396 385.889 828.396C382.458 828.396 379.677 831.142 379.677 834.529C379.677 837.915 382.458 840.661 385.889 840.661Z" fill="#1A73E8"/>
<path d="M392.673 837.513C394.351 837.513 395.71 836.171 395.71 834.515C395.71 832.86 394.351 831.518 392.673 831.518C390.996 831.518 389.637 832.86 389.637 834.515C389.637 836.171 390.996 837.513 392.673 837.513Z" fill="#F3F7FE"/>
</g>
<g clip-path="url(#clip4_3303_15908)">
<path d="M1624.91 481.989L1607.7 430H1448.24L1431 482H1629.99V481.989H1624.91Z" fill="#1A73E8"/>
<path d="M1537.96 219.313L1537.52 218H1518.54L1455.05 409.771H1507.15L1553.42 270H1537.96V219.313Z" fill="#1A73E8"/>
<path d="M1653.09 409.771H1653.11L1589.61 218H1570.64L1570.2 219.313V270H1554.74L1561.43 290.218H1613.51L1653.09 409.771Z" fill="#1A73E8"/>
<path d="M1537.96 218H1537.52L1537.96 219.313V218Z" fill="#1A73E8"/>
<path d="M1570.64 218H1570.2V219.313L1570.64 218Z" fill="#1A73E8"/>
<path d="M1561.43 290.219H1561.42L1583.35 356.47C1583.35 356.47 1583.36 356.47 1583.37 356.47L1561.43 290.219V290.219Z" fill="#1A73E8"/>
<path d="M1629.99 481.99H1677L1653.09 409.772H1601.01L1590.9 379.24C1590.9 379.24 1590.9 379.246 1590.89 379.251L1607.7 430.001H1629.99V481.99V481.99Z" fill="#1A73E8"/>
<path d="M1629.99 481.989V430H1607.7L1624.91 481.989H1629.99Z" fill="#1A73E8"/>
<path d="M1595.77 369.223C1595.77 373.284 1593.87 376.905 1590.9 379.24L1601.01 409.772H1653.09L1613.51 290.213H1561.43L1583.37 356.464C1590.25 356.666 1595.77 362.299 1595.77 369.218V369.223Z" fill="#1A73E8"/>
<path d="M1553.42 270H1554.74L1554.08 268.01L1553.42 270Z" fill="#1A73E8"/>
<path d="M1537.96 219.312V269.999H1553.42L1554.08 268.008L1537.96 219.312Z" fill="#1A73E8"/>
<path d="M1570.2 219.312L1554.08 268.008L1554.74 269.999H1570.2V219.312Z" fill="#1A73E8"/>
<path d="M1554.08 268.009L1570.2 219.313V218H1537.96V219.313L1554.08 268.009Z" fill="#1A73E8"/>
<path d="M1570.2 369.224C1570.2 364.02 1573.32 359.552 1577.79 357.561C1573.49 349.027 1564.64 343.166 1554.41 343.166C1539.97 343.166 1528.26 354.856 1528.26 369.277C1528.26 383.698 1539.97 395.388 1554.41 395.388C1564.68 395.388 1573.56 389.485 1577.84 380.903C1573.34 378.923 1570.2 374.439 1570.2 369.219V369.224Z" fill="#1A73E8"/>
</g>
<g clip-path="url(#clip5_3303_15908)">
<path d="M1560.29 660.994L1550.15 630.273H1456.16L1446 661H1563.29V660.994H1560.29Z" fill="#1A73E8"/>
<path d="M1509.04 505.776L1508.79 505H1497.6L1460.18 618.319H1490.88L1518.16 535.727H1509.04V505.776Z" fill="#1A73E8"/>
<path d="M1576.91 618.319H1576.92L1539.49 505H1528.31L1528.05 505.776V535.727H1518.93L1522.88 547.674H1553.58L1576.91 618.319Z" fill="#1A73E8"/>
<path d="M1509.04 505H1508.79L1509.04 505.776V505Z" fill="#1A73E8"/>
<path d="M1528.31 505H1528.05V505.776L1528.31 505Z" fill="#1A73E8"/>
<path d="M1522.88 547.674H1522.87L1535.8 586.822C1535.8 586.822 1535.81 586.822 1535.81 586.822L1522.88 547.674V547.674Z" fill="#1A73E8"/>
<path d="M1563.29 660.993H1591L1576.91 618.319H1546.21L1540.25 600.277C1540.25 600.277 1540.25 600.28 1540.25 600.284L1550.15 630.272H1563.29V660.993V660.993Z" fill="#1A73E8"/>
<path d="M1563.29 660.994V630.273H1550.15L1560.29 660.994H1563.29Z" fill="#1A73E8"/>
<path d="M1543.12 594.36C1543.12 596.759 1542 598.899 1540.25 600.279L1546.21 618.32H1576.91L1553.58 547.672H1522.88L1535.81 586.82C1539.87 586.939 1543.12 590.268 1543.12 594.357V594.36Z" fill="#1A73E8"/>
<path d="M1518.16 535.727H1518.93L1518.55 534.551L1518.16 535.727Z" fill="#1A73E8"/>
<path d="M1509.04 505.775V535.727H1518.16L1518.55 534.55L1509.04 505.775Z" fill="#1A73E8"/>
<path d="M1528.05 505.775L1518.55 534.55L1518.93 535.727H1528.05V505.775Z" fill="#1A73E8"/>
<path d="M1518.55 534.551L1528.05 505.776V505H1509.04V505.776L1518.55 534.551Z" fill="#1A73E8"/>
<path d="M1528.05 594.359C1528.05 591.284 1529.89 588.643 1532.52 587.467C1529.99 582.424 1524.77 578.961 1518.74 578.961C1510.23 578.961 1503.33 585.868 1503.33 594.39C1503.33 602.912 1510.23 609.819 1518.74 609.819C1524.79 609.819 1530.03 606.331 1532.55 601.26C1529.9 600.09 1528.05 597.44 1528.05 594.356V594.359Z" fill="#1A73E8"/>
</g>
<g clip-path="url(#clip6_3303_15908)">
<path d="M1514.79 775.996L1508.77 757.879H1453.03L1447 776H1516.57V775.996H1514.79Z" fill="#1A73E8"/>
<path d="M1484.39 684.458L1484.24 684H1477.6L1455.41 750.829H1473.62L1489.8 702.121H1484.39V684.458Z" fill="#1A73E8"/>
<path d="M1524.64 750.829H1524.65L1502.45 684H1495.82L1495.66 684.458V702.121H1490.26L1492.6 709.167H1510.8L1524.64 750.829Z" fill="#1A73E8"/>
<path d="M1484.39 684H1484.24L1484.39 684.458V684Z" fill="#1A73E8"/>
<path d="M1495.82 684H1495.66V684.458L1495.82 684Z" fill="#1A73E8"/>
<path d="M1492.6 709.166H1492.59L1500.26 732.254C1500.26 732.254 1500.26 732.254 1500.27 732.254L1492.6 709.166V709.166Z" fill="#1A73E8"/>
<path d="M1516.57 775.996H1533L1524.64 750.829H1506.44L1502.9 740.189C1502.9 740.189 1502.9 740.191 1502.9 740.193L1508.77 757.879H1516.57V775.996V775.996Z" fill="#1A73E8"/>
<path d="M1516.57 775.996V757.879H1508.77L1514.79 775.996H1516.57Z" fill="#1A73E8"/>
<path d="M1504.6 736.698C1504.6 738.113 1503.94 739.375 1502.9 740.189L1506.44 750.828H1524.64L1510.8 709.164H1492.6L1500.27 732.252C1502.67 732.322 1504.6 734.285 1504.6 736.696V736.698Z" fill="#1A73E8"/>
<path d="M1489.8 702.121H1490.26L1490.03 701.428L1489.8 702.121Z" fill="#1A73E8"/>
<path d="M1484.39 684.457V702.121H1489.8L1490.03 701.427L1484.39 684.457Z" fill="#1A73E8"/>
<path d="M1495.66 684.457L1490.03 701.427L1490.26 702.121H1495.66V684.457Z" fill="#1A73E8"/>
<path d="M1490.03 701.427L1495.66 684.458V684H1484.39V684.458L1490.03 701.427Z" fill="#1A73E8"/>
<path d="M1495.66 736.7C1495.66 734.886 1496.75 733.329 1498.32 732.636C1496.81 729.661 1493.72 727.619 1490.14 727.619C1485.09 727.619 1481 731.693 1481 736.718C1481 741.744 1485.09 745.818 1490.14 745.818C1493.73 745.818 1496.84 743.761 1498.33 740.77C1496.76 740.08 1495.66 738.517 1495.66 736.698V736.7Z" fill="#1A73E8"/>
</g>
<g clip-path="url(#clip7_3303_15908)">
<path d="M1490.93 860.997L1486.94 848.787H1450L1446 860.999H1492.11V860.997H1490.93Z" fill="#1A73E8"/>
<path d="M1470.78 799.308L1470.68 799H1466.28L1451.57 844.037H1463.64L1474.37 811.212H1470.78V799.308Z" fill="#1A73E8"/>
<path d="M1497.46 844.037H1497.46L1482.75 799H1478.36L1478.25 799.308V811.212H1474.67L1476.22 815.96H1488.29L1497.46 844.037Z" fill="#1A73E8"/>
<path d="M1470.78 799H1470.68L1470.78 799.308V799Z" fill="#1A73E8"/>
<path d="M1478.35 799H1478.25V799.308L1478.35 799Z" fill="#1A73E8"/>
<path d="M1476.22 815.961H1476.22L1481.3 831.52C1481.3 831.52 1481.3 831.52 1481.3 831.52L1476.22 815.961V815.961Z" fill="#1A73E8"/>
<path d="M1492.11 860.998H1503L1497.46 844.037H1485.39L1483.05 836.867C1483.05 836.867 1483.05 836.868 1483.05 836.87L1486.94 848.788H1492.11V860.998V860.998Z" fill="#1A73E8"/>
<path d="M1492.11 860.997V848.787H1486.94L1490.93 860.997H1492.11Z" fill="#1A73E8"/>
<path d="M1484.18 834.514C1484.18 835.468 1483.74 836.319 1483.05 836.867L1485.39 844.037H1497.46L1488.29 815.959H1476.22L1481.3 831.518C1482.9 831.565 1484.18 832.888 1484.18 834.513V834.514Z" fill="#1A73E8"/>
<path d="M1474.37 811.212H1474.67L1474.52 810.744L1474.37 811.212Z" fill="#1A73E8"/>
<path d="M1470.78 799.309V811.212H1474.37L1474.52 810.745L1470.78 799.309Z" fill="#1A73E8"/>
<path d="M1478.25 799.309L1474.52 810.745L1474.67 811.212H1478.25V799.309Z" fill="#1A73E8"/>
<path d="M1474.52 810.745L1478.25 799.308V799H1470.78V799.308L1474.52 810.745Z" fill="#1A73E8"/>
<path d="M1478.25 834.514C1478.25 833.292 1478.98 832.243 1480.01 831.775C1479.02 829.771 1476.97 828.395 1474.6 828.395C1471.25 828.395 1468.54 831.14 1468.54 834.527C1468.54 837.913 1471.25 840.659 1474.6 840.659C1476.97 840.659 1479.03 839.272 1480.02 837.257C1478.98 836.792 1478.25 835.739 1478.25 834.513V834.514Z" fill="#1A73E8"/>
</g>
<defs>
<clipPath id="clip0_3303_15908">
<rect width="722" height="264" fill="white" transform="translate(243 218)"/>
</clipPath>
<clipPath id="clip1_3303_15908">
<rect width="428" height="156" fill="white" transform="translate(243 505)"/>
</clipPath>
<clipPath id="clip2_3303_15908">
<rect width="254" height="92" fill="white" transform="translate(243 684)"/>
</clipPath>
<clipPath id="clip3_3303_15908">
<rect width="172" height="62" fill="white" transform="translate(243 799)"/>
</clipPath>
<clipPath id="clip4_3303_15908">
<rect width="246" height="264" fill="white" transform="translate(1431 218)"/>
</clipPath>
<clipPath id="clip5_3303_15908">
<rect width="145" height="156" fill="white" transform="translate(1446 505)"/>
</clipPath>
<clipPath id="clip6_3303_15908">
<rect width="86" height="92" fill="white" transform="translate(1447 684)"/>
</clipPath>
<clipPath id="clip7_3303_15908">
<rect width="57" height="62" fill="white" transform="translate(1446 799)"/>
</clipPath>
</defs>
</svg>
